!!!!SEGMENT: pl-wtm--r-730-11-m_moniuszko-stanislaw--matulenku-on-nie-wroci.krn
!!!cenid: 18xx:1691
!!!COM: Moniuszko, Stanisław
!!!COM-rismID: pe30008351
!!!CDT: 1819/05/05-1872/06/04
!!!CNT: Polish
!!!OTL: Matuleńku, on nie wróci
!!!PDT:
!!!AGN: Secular
!!!SMS-siglum: PL-Wtm
!!!SMS-shelfmark: R 730/11/M
!!!SMS-shelfwork: W
!!!SMS-variant:
!!!SMS-altvar:
!!!NIFC-rismSourceID: 1001099788
!!!NIFC-islandoraID:
!!!URL-pdf-islandora:
!!!URL-scan:
!!!ONB-nifc: Skan 0018. No. 763
!!!AIN: 1 forte 1 vox
!!!key:
**kern	**kern	**dynam	**kern	**text
*part2	*part2	*part2	*part1	*part1
*staff3	*staff2	*	*staff1	*staff1
*Iforte	*Iempty	*	*Ivox	*
*I"[Fortepian]	*	*	*I"[Głos]	*
*I'[pf]	*	*	*I'[S]	*
*clefF4	*clefG2	*	*clefG2	*
*k[b-e-]	*k[b-e-]	*	*k[b-e-]	*
*g:	*g:	*	*g:	*
*M2/4	*M2/4	*	*M2/4	*
=1	=1	=1	=1	=1
!	!	!	!LO:TX:a:i:t=Allegretto.	!
4r	4r	.	2r	.
!	!	!LO:DY:t=p.	!	!
4D/	(([4d/ 4f#X 4a	p	.	.
=2	=2	=2	=2	=2
4GG;/	4d;/])) 4g 4b-	.	4r;	.
4r	4r	.	8dd\	Ma-
.	.	.	8dd\	-tu-
=3	=3	=3	=3	=3
4GG/	8r	.	8dd\	-leń-
*	*tremolo	*	*	*
.	8B-/ 8e- 8gL	.	8b-/	-ku!
4r	8B-/ 8e- 8g	.	8a/	on
.	8B-/ 8e- 8gJ	.	8g/	nie
*	*Xtremolo	*	*	*
=4	=4	=4	=4	=4
4AA/	8r	.	8g/	wró-
*	*tremolo	*	*	*
.	8c/ 8f#XL	.	8f#X/	-ci,
4D\	8c/ 8f#X	.	8f#/	on
.	8c/ 8f#XJ	.	8g/	po-
*	*Xtremolo	*	*	*
=5	=5	=5	=5	=5
4DD/	8r	.	8a/	-ie-
!	!LO:SIC:v:n=2:s=8f#	!	!	!
.	8c/ 8f	.	8cc/	-chał
4DD/	8r	.	8b-/	w_ob-
!	!LO:SIC:v:n=2:s=8f#	!	!	!
.	8c/ 8f	.	8a/	-cą
=6	=6	=6	=6	=6
!LO:TX:t=P:problem=mixed beam	!	!	!	!
8GG/L	8r	.	16b-/LL	stro-
.	.	.	16a/JJ	.
*	*tremolo	*	*	*
8D\	8B-/ 8gL	.	8g/	-nę;
8D\	8B-/ 8g	.	8dd\	on
8D\J	8B-/ 8gJ	.	8dd\	za-
*	*Xtremolo	*	*	*
=7	=7	=7	=7	=7
*rep	*	*	*	*
!LO:TX:t=P:problem=mixed beam	!	!	!	!
!	!	!	!LO:TUP:a:problem=klamra łukowa	!
8GG/L	8r	.	12ee-X\L	-pom-
.	.	.	12dd\J	.
*	*tremolo	*	*	*
8D\	8B-/ 8gL	.	.	.
.	.	.	12cc\	-ni
!	!	!	!LO:TUP:a:problem=klamra łukowa	!
8D\	8B-/ 8g	.	12b-\L	i
.	.	.	12a\J	.
8D\J	8B-/ 8gJ	.	.	.
.	.	.	12g\	po-
*Xrep	*Xtremolo	*	*	*
!!LO:LB:g=original
=8	=8	=8	=8	=8
8AA\L	8r	.	8g/	-rzu-
*	*tremolo	*	*	*
8D\	8c/ 8f#XL	.	8f#X/	-ci
8D\	8c/ 8f#X	.	8f#/	bie-
8D\J	8c/ 8f#XJ	.	8g/	-dne
*	*Xtremolo	*	*	*
=9	=9	=9	=9	=9
!LO:TX:t=P:problem=mixed beam	!	!	!	!
8DD/L	8r	.	8a/	dzie-
8D\J	8c/ 8f#X	.	8cc/	-wcze
!LO:TX:t=P:problem=mixed beam	!	!	!	!
8DD/L	8r	.	8b-/	o-
8D\J	8c/ 8f#	.	8a/	-pusz-
=10	=10	=10	=10	=10
.	.	.	8qa/	.
8GG/ 8D	8B-/ 8g	.	4g/	-ne.
8r	8r	.	.	.
4r	8f\L 8ff	.	4r	.
.	8f\J 8ff	.	.	.
!	!	!LO:DY:t=f.	!	!
.	.	f	.	.
=11	=11	=11	=11	=11
8BBB-/ 8BB-	8f\L 8ff	.	2r	.
*tremolo	*	*	*	*
8F\ 8B- 8dL	8f\ 8b-	.	.	.
8F\ 8B- 8d	8f\ 8b-	.	.	.
8F\ 8B- 8dJ	16f\L 16b-	.	.	.
*Xtremolo	*	*	*	*
.	16cc\JJ	.	.	.
=12	=12	=12	=12	=12
8CC/ 8C	8b-/L 8rc	.	4r	.
*tremolo	*	*	*	*
!	!	!LO:DY:t=p.	!	!
8F\ 8c 8e-L	8a/ 8f/L	p	.	.
8F\ 8c 8e-	8a/ 8f/	.	8a/	Ma-
8F\ 8c 8e-J	8b-/J 8f/J	.	8b-/	-tu-
*Xtremolo	*	*	*	*
=13	=13	=13	=13	=13
8FF/	8f/L 8cc	.	8cc\	-leń-
*tremolo	*	*	*	*
8F\ 8A 8e-L	8g/ 8ee-	.	8ee-\	-ka!
8F\ 8A 8e-	8f/ 8dd	.	8dd\	on
8F\ 8A 8e-J	8e-/J 8cc	.	8cc\	nie
*Xtremolo	*	*	*	*
=14	=14	=14	=14	=14
*	*^	*	*	*
8BB-/	8cc/L	8rc	.	8cc\	wró-
*tremolo	*	*	*	*	*
8F\ 8B- 8dL	8b-/J	8f\L	.	8b-\	-ci
8F\ 8B- 8d	8ff/L	8f\	.	4r	.
8F\ 8B- 8dJ	8ff/J	8f\J	.	.	.
!	!	!	!LO:DY:t=f.	!	!
.	.	.	f	.	.
*Xtremolo	*	*	*	*	*
=15	=15	=15	=15	=15	=15
8BBB-/ 8BB-	8ee-/L	8rc	.	2r	.
*tremolo	*	*tremolo	*	*	*
8F\ 8B- 8dL	8b-/J	8f\L	.	.	.
8F\ 8B- 8d	8b-/L	8f\	.	.	.
8F\ 8B- 8dJ	16dd/L	8f\J	.	.	.
*Xtremolo	*	*Xtremolo	*	*	*
.	16cc/JJ	.	.	.	.
=16	=16	=16	=16	=16	=16
8CC/ 8C	8b-/L	8rc	.	4r	.
*tremolo	*	*tremolo	*	*	*
8F\ 8c 8e-L	8a/	8f\L	.	.	.
8F\ 8c 8e-	8a/	8f\	.	8a/	On
8F\ 8c 8e-J	8b-/J	8f\J	.	8b-/	po-
*Xtremolo	*	*Xtremolo	*	*	*
=17	=17	=17	=17	=17	=17
!LO:TX:t=P:problem=mixed beam	!	!	!	!	!
8FF/L	8cc/L	8f\L	.	8cc\	-ǐe-
8F\ 8A	8ee-/	8g-X\	.	8ee-\	-chał
8FF/	8dd/	8f\	.	8dd\	w_ob-
8F\J 8A	8cc/J	8e-\J	.	8cc\	-cą
!!LO:LB:g=original
=18	=18	=18	=18	=18	=18
4BB-\ 4F 4B-	4b-/	4d\	.	4b-\	stronę
4r	8dd'\L	4ryy	.	4r	.
.	8dd'\J	.	.	.	.
*	*v	*v	*	*	*
=19	=19	=19	=19	=19
8FF#X/	8dd'\L	.	4r	.
*tremolo	*	*	*	*
8D\ 8A 8cL	8cc'\	.	.	.
8D\ 8A 8c	8b-'\	.	8b-/	On
8D\ 8A 8cJ	8a'\J	.	8a/	za-
*Xtremolo	*	*	*	*
=20	=20	=20	=20	=20
!LO:TX:t=P:problem=mixed beam	!	!	!	!
8GG/L	(8b-/L	.	8b-/	-po-
8D\J 8G 8B-	8g/J)	.	8g/	-mni,
4r	8dd'\L	.	4r	.
.	8dd'\J	.	.	.
=21	=21	=21	=21	=21
*rep	*	*	*	*
!LO:TX:t=P:problem=mixed beam	!	!	!	!
8GG/L	8dd'\L	.	4r	.
8D\J 8G 8B-	8cc'\	.	.	.
4r	8b-'\	.	8b-/	on
.	8a'\J	.	8a/	po-
*Xrep	*	*	*	*
=22	=22	=22	=22	=22
*rep	*	*	*	*
!LO:TX:t=P:problem=mixed beam	!	!	!	!
8GG/L	(8b-/L	.	8b-/	-rzu-
8D\J 8G 8B-	8g/J)	.	8g/	-ci
4r	4r	.	8b-\	bie-
.	.	.	8b-\	-dne
*Xrep	*	*	*	*
=23	=23	=23	=23	=23
*2\right	*	*	*	*
(2E-\	((>2e-X/ 2g [2b-	.	8b-\	dzie-
.	.	.	8b-\	-wcze
.	.	.	8cc\	o-
.	.	.	8cc#X\	-pu-
=24	=24	=24	=24	=24
2BB-/)	(>[>2d/)) 2f 2b-_	.	8dd\	-szczo-
.	.	.	8dd\	-ne,
.	.	.	8cc\	bǐe-
.	.	.	8dd\	-dne
=25	=25	=25	=25	=25
!	!	!	!LO:DY:t=sf.	!
(2GG/	[>(>2d/)] 2g 2b-]	sf	8dd\	dzǐe-
.	.	.	8dd\	-wcze
.	.	.	8een\	o-
.	.	.	8ee#X\	-pusz-
=26	=26	=26	=26	=26
.	.	.	8qff#X/	-czo-
4DD;/)	4d;/))] 4f#X 4a	.	4ff#;\	-ne
4r	4r	.	8gg\	Pa-
.	.	.	8gg\	-trzę
!!LO:PB:g=original
=27	=27	=27	=27	=27
!	!	!LO:DY:t=pp.	!	!
8BBn\L	8r	pp	8gg\	co
!	!LO:TX:t=P:problem=pod nutą trzy kropki dla trzech tremolowanych ósemek	!	!	!
*	*tremolo	*	*	*
8G\	8d/ 8fL	.	8ff\	wie-
8G\	8d/ 8f	.	8ee-X\	-czór
8G\J	8d/ 8fJ	.	8dd\	na
*	*Xtremolo	*	*	*
=28	=28	=28	=28	=28
8C\L	8r	.	8ee-^\	dro-
8G\J	8c/ 8e-	.	8cc\	-gę,
4r	4r	.	8ff\	pa-
.	.	.	8ff\	-trzę
=29	=29	=29	=29	=29
!LO:TX:t=P:problem=mixed beam	!	!	!	!
8AA/L	8r	.	8ff\	na
*	*tremolo	*	*	*
8F\	8c/ 8e-L	.	8ee-\	dro-
8F\	8c/ 8e-	.	8dd\	-gę
8F\J	8c/ 8e-J	.	8cc\	co
*	*Xtremolo	*	*	*
=30	=30	=30	=30	=30
!LO:TX:t=P:problem=mixed beam	!	!	!	!
8BB-/L	8r	.	8dd\	ran-
8F\J	8B-/ 8d	.	8b-\	-ka,
4r	4r	.	8ee-\	Cze-
.	.	.	8ee-\	-muż
=31	=31	=31	=31	=31
!	!	!LO:DY:t=sf.	!	!
2C\ 2c	(>2e-/ 2a-X	sf	8ff\	za-
.	.	.	8ee-\	-pom-
.	.	.	8cc\	-nieć
.	.	.	8a-X/	nie
=32	=32	=32	=32	=32
!	!	!	!LO:SIC:v:s=8a-	!
4D\ 4B-	8r	.	8a/	mo-
.	(8e-/L) 8g	.	8g/	-gę
8B-\L	8d/ 8g	.	8f#X/	al-
8B-\J	8c#X/J) 8g	.	8g/	-bo
=33	=33	=33	=33	=33
4D\ 4A	8r	.	8g#X/	zo-
.	8c/ 8f#X	.	8a/	-ba-
4D\ 4A	8r	.	8.dd\	-czyć
.	8c/ 8f#	.	.	.
.	.	.	16cc\	ko-
=34	=34	=34	=34	=34
4GG\ 4G	8r	.	8cc\	-chan-
.	8B-/ 8g	.	8b-\	-ka
(8A-X\L	4r	.	8gg\	Pa-
8G\J)	.	.	8gg\	-trzę
!!LO:LB:g=original
=35	=35	=35	=35	=35
8BBn/	8gg\L	.	8gg\	co
*tremolo	*	*	*	*
8G\ 8d 8fL	8ff\	.	8aa-X\	wie-
8G\ 8d 8f	8ee-\	.	8gg\	-czór
8G\ 8d 8fJ	8dd\J	.	8ff\	na
*Xtremolo	*	*	*	*
=36	=36	=36	=36	=36
8C/	4cc\	.	8ee-X\	dro-
*tremolo	*	*	*	*
8G\ 8c 8e-L	.	.	8cc\	-gę,
8G\ 8c 8e-	4r	.	8ff\	pa-
8G\ 8c 8e-J	.	.	8ff\	-trzę
*Xtremolo	*	*	*	*
=37	=37	=37	=37	=37
8AA/	8ff\L	.	8ff\	na
*tremolo	*	*	*	*
8F\ 8c 8e-L	8ee-\	.	8gg\	dro-
8F\ 8c 8e-	8dd\	.	8ff\	-gę
8F\ 8c 8e-J	8cc\J	.	8ee-\	co
*Xtremolo	*	*	*	*
=38	=38	=38	=38	=38
4BB-\ 4B-	8d\L 8b-	.	8dd\	ran-
.	8f\ 8b- 8dd	.	8b-\	-ka,
4r	8f\ 8b- 8dd	.	8dd\	Cze-
.	8f\J 8b- 8dd	.	8dd\	-muż
=39	=39	=39	=39	=39
4C/	8r	.	8ee-\	za-
*	*tremolo	*	*	*
.	8e-/ 8a 8ccL	.	8ee-\	-pom-
4r	8e-/ 8a 8cc	.	8dd\	-nieć
.	8e-/ 8a 8ccJ	.	8cc\	nie
*	*Xtremolo	*	*	*
=40	=40	=40	=40	=40
4D\	8r	.	8cc^\	mo-
*	*tremolo	*	*	*
.	8d/ 8g 8b-L	.	8b-\	-gę
4r	8d/ 8g 8b-	.	8cc^\	al-
.	8d/ 8g 8b-J	.	8b-\	-bo
*	*Xtremolo	*	*	*
=41	=41	=41	=41	=41
*	*^	*	*	*
4D\	[4f/ [4a	(>4d\	.	8g#X/	zo-
.	.	.	.	8a/	-ba-
4DD;/	4f;/] 4a]	4c\)	.	8.dd;\	czyć Ko-
.	.	.	.	16f#X/	-chan-
*	*v	*v	*	*	*
!!LO:LB:g=original
=42	=42	=42	=42	=42
8GG/	8B-/ 8g	.	4g/	-ka
*tremolo	*	*	*	*
!	!	!LO:DY:t=f.	!	!
8D\ 8G 8B-L	8r	f	.	.
8D\ 8G 8B-	16g\LL	.	4r	.
.	16b-\	.	.	.
8D\ 8G 8B-J	16dd\	.	.	.
*Xtremolo	*	*	*	*
.	16gg\JJ	.	.	.
=43	=43	=43	=43	=43
8DD/	8ee-\L	.	2r	.
*tremolo	*	*	*	*
8D\ 8A 8cL	8f#X\ 8ee-	.	.	.
8D\ 8A 8c	8f#\ 8ee-	.	.	.
8D\ 8A 8cJ	8f#\J 8ee-	.	.	.
*Xtremolo	*	*	*	*
=44	=44	=44	=44	=44
*	*^	*	*	*
8GG/	(<8ee-/L	8rc	>	2r	.
*tremolo	*	*	*	*	*
8D\ 8G 8B-L	8dd/J)	8g\	]	.	.
8D\ 8G 8B-	16g\LL	4ryy	.	.	.
.	16b-\	.	.	.	.
8D\ 8G 8B-J	16dd\	.	.	.	.
*Xtremolo	*	*	*	*	*
.	16gg\JJ	.	.	.	.
*	*v	*v	*	*	*
=45	=45	=45	=45	=45
8FF/	8ee-\L	.	2r	.
*tremolo	*	*	*	*
8D\ 8A 8cL	8f#X\ 8ee-	.	.	.
8D\ 8A 8c	8f#\ 8ee-	.	.	.
8D\ 8A 8cJ	8f#\J 8ee-	.	.	.
*Xtremolo	*	*	*	*
=46	=46	=46	=46	=46
!LO:TX:t=P:problem=mixed beam	!	!	!	!
8GG/L	(8ee-/L	>	2r	.
8D\J 8G 8B-	8g/J) 8dd	]	.	.
!LO:TX:t=P:problem=mixed beam	!	!	!	!
8BB-/L	16g\LL	.	.	.
.	16bn\	.	.	.
8D\J 8F 8Bn	16dd\	.	.	.
.	16ff\JJ	.	.	.
=47	=47	=47	=47	=47
!LO:TX:t=P:problem=mixed beam	!	!	!	!
8CC/L	8een/L	.	2r	.
8C\J 8E- 8c	8g/J 8cc 8ee	sf	.	.
!LO:TX:t=P:problem=mixed beam	!	!	!	!
8FF/L	16f/LL	.	.	.
.	16a/	.	.	.
8F\J 8A 8c	16cc/	.	.	.
.	16ee-X/JJ	.	.	.
=48	=48	=48	=48	=48
!LO:TX:t=P:problem=mixed beam	!	!	!	!
8BBB-/L	8dd\L	.	2r	.
8F\J 8B-	8b-^<\J 8dd	.	.	.
!LO:TX:t=P:problem=mixed beam	!	!	!	!
8CC/L	8cc\L	.	.	.
8E-\J 8A 8c	8a^<\J 8cc	.	.	.
=49	=49	=49	=49	=49
!LO:TX:t=P:problem=mixed beam	!	!	!	!
8DD/L	8b-/L	.	2r	.
8D\J 8G 8B-	8g^</J 8b-	.	.	.
!LO:TX:t=P:problem=mixed beam	!	!	!	!
8DD/L	8a/L	.	.	.
8D\J 8A	8f#X^</J 8dd	.	.	.
=50	=50	=50	=50	=50
!LO:TX:t=P:problem=mixed beam	!LO:TX:t=P:problem=mixed beam	!	!	!
8G\L 8B-	8g/L	.	2r	.
8GG/J	8gg^\J	.	.	.
4r	4r	.	.	.
!!LO:PB:g=original
==	==	==	==	==
*-	*-	*-	*-	*-
!!!system-decoration: s1{(s2,s3)}
!!!RDF**kern: < = below
!!!RDF**kern: > = above
!!!ENC: Marta Chmielewska
!!!END: 2021-04-19
!!!ENC: Mateusz Solarz
!!!END: 2021-03-30
